images/stock__4.svg

<svg width="152" height="152" viewBox="0 0 152 152" fill="none" xmlns="http://www.w3.org/2000/svg">
<path d="M102.956 23.5374H54.3843C50.3155 23.5374 46.6099 25.1106 43.9579 27.7922C41.2696 30.4022 39.6348 34.0492 39.6348 38.0536C39.6348 42.0581 41.2333 45.6335 43.9579 48.3151C46.6099 50.9609 50.3155 52.5698 54.3843 52.5698H108.115C109.35 52.5698 110.44 52.0693 111.203 51.3184C112.002 50.5318 112.474 49.4592 112.474 48.2793C112.474 47.0994 112.002 46.0268 111.203 45.2402C110.403 44.4536 109.314 43.9888 108.115 43.9888H102.92H54.3843C52.7859 43.9888 51.2964 43.381 50.2065 42.2726C49.1166 41.1642 48.4627 39.8056 48.4627 38.1609C48.4627 36.6235 49.0803 35.1933 50.2065 34.0492C51.2964 32.9765 52.7132 32.333 54.3843 32.333H102.92C103.392 32.333 103.646 32.6905 103.646 33.048C103.646 33.5128 103.283 33.7631 102.92 33.7631H54.3843C53.1491 33.7631 52.0593 34.2279 51.2964 35.0145C50.4608 35.8369 50.0249 36.981 50.0249 38.0536C50.0249 39.2693 50.5335 40.3419 51.2964 41.0927C52.0956 41.8793 53.1855 42.3441 54.3843 42.3441H102.92C105.572 42.3441 107.933 41.2715 109.677 39.5911C111.421 37.8749 112.474 35.5508 112.474 32.9408C112.474 30.4737 111.493 28.0425 109.677 26.2905C107.969 24.5743 105.499 23.5374 102.956 23.5374ZM54.2753 22H102.847C104.663 22 106.335 22.4648 107.86 23.1799C108.369 23.4659 108.95 23.7877 109.423 24.1095C109.931 24.467 110.512 25.0034 110.694 25.2179C112.728 27.2201 113.964 29.9374 113.964 32.9408C113.964 35.8726 112.765 38.5899 110.694 40.6279C110.04 41.2715 109.277 41.8793 108.405 42.3441C109.859 42.4514 111.203 43.0592 112.256 44.0603C113.346 45.133 114 46.5274 114 48.1721C114 49.7095 113.382 51.1397 112.256 52.2838C111.166 53.3564 109.75 54 108.078 54L54.239 53.9642C49.7342 53.9642 45.6654 52.1408 42.7954 49.2447C39.8164 46.3128 38 42.3084 38 37.9821C38 33.5486 39.8528 29.5441 42.7954 26.7196C43.5946 25.8972 44.5029 25.1821 45.4474 24.5743C48.0631 23.0011 51.1511 22 54.2753 22Z" fill="#010066"/>
<path d="M102.956 55.5374H54.3843C50.3155 55.5374 46.6099 57.1106 43.9579 59.7922C41.2696 62.4022 39.6348 66.0492 39.6348 70.0536C39.6348 74.0581 41.2333 77.6335 43.9579 80.3151C46.6099 82.9609 50.3155 84.5698 54.3843 84.5698H108.115C109.35 84.5698 110.44 84.0693 111.203 83.3184C112.002 82.5318 112.474 81.4592 112.474 80.2793C112.474 79.0994 112.002 78.0268 111.203 77.2402C110.403 76.4536 109.314 75.9888 108.115 75.9888H102.92H54.3843C52.7859 75.9888 51.2964 75.381 50.2065 74.2726C49.1166 73.1642 48.4627 71.8056 48.4627 70.1609C48.4627 68.6235 49.0803 67.1933 50.2065 66.0492C51.2964 64.9765 52.7132 64.333 54.3843 64.333H102.92C103.392 64.333 103.646 64.6905 103.646 65.048C103.646 65.5128 103.283 65.7631 102.92 65.7631H54.3843C53.1491 65.7631 52.0593 66.2279 51.2964 67.0145C50.4608 67.8369 50.0249 68.981 50.0249 70.0536C50.0249 71.2693 50.5335 72.3419 51.2964 73.0927C52.0956 73.8793 53.1855 74.3441 54.3843 74.3441H102.92C105.572 74.3441 107.933 73.2715 109.677 71.5911C111.421 69.8749 112.474 67.5508 112.474 64.9408C112.474 62.4737 111.493 60.0425 109.677 58.2905C107.969 56.5743 105.499 55.5374 102.956 55.5374ZM54.2753 54H102.847C104.663 54 106.335 54.4648 107.86 55.1799C108.369 55.4659 108.95 55.7877 109.423 56.1095C109.931 56.467 110.512 57.0034 110.694 57.2179C112.728 59.2201 113.964 61.9374 113.964 64.9408C113.964 67.8726 112.765 70.5899 110.694 72.6279C110.04 73.2715 109.277 73.8793 108.405 74.3441C109.859 74.4514 111.203 75.0592 112.256 76.0603C113.346 77.133 114 78.5274 114 80.1721C114 81.7095 113.382 83.1397 112.256 84.2838C111.166 85.3564 109.75 86 108.078 86L54.239 85.9642C49.7342 85.9642 45.6654 84.1408 42.7954 81.2447C39.8164 78.3128 38 74.3084 38 69.9821C38 65.5486 39.8528 61.5441 42.7954 58.7196C43.5946 57.8972 44.5029 57.1821 45.4474 56.5743C48.0631 55.0011 51.1511 54 54.2753 54Z" fill="#010066"/>
<path d="M102.956 87.5855H54.3843C50.3155 87.5855 46.6099 89.2078 43.9579 91.9732C41.2696 94.6648 39.6348 98.4257 39.6348 102.555C39.6348 106.685 41.2333 110.372 43.9579 113.137C46.6099 115.866 50.3155 117.525 54.3843 117.525H108.115C109.35 117.525 110.44 117.009 111.203 116.235C112.002 115.423 112.474 114.317 112.474 113.101C112.474 111.884 112.002 110.778 111.203 109.966C110.403 109.155 109.314 108.676 108.115 108.676H102.92H54.3843C52.7859 108.676 51.2964 108.049 50.2065 106.906C49.1166 105.763 48.4627 104.362 48.4627 102.666C48.4627 101.08 49.0803 99.6056 50.2065 98.4257C51.2964 97.3196 52.7132 96.6559 54.3843 96.6559H102.92C103.392 96.6559 103.646 97.0246 103.646 97.3933C103.646 97.8726 103.283 98.1307 102.92 98.1307H54.3843C53.1491 98.1307 52.0593 98.6101 51.2964 99.4212C50.4608 100.269 50.0249 101.449 50.0249 102.555C50.0249 103.809 50.5335 104.915 51.2964 105.689C52.0956 106.501 53.1855 106.98 54.3843 106.98H102.92C105.572 106.98 107.933 105.874 109.677 104.141C111.421 102.371 112.474 99.9743 112.474 97.2827C112.474 94.7386 111.493 92.2313 109.677 90.4246C107.969 88.6547 105.499 87.5855 102.956 87.5855ZM54.2753 86H102.847C104.663 86 106.335 86.4793 107.86 87.2168C108.369 87.5117 108.95 87.8436 109.423 88.1754C109.931 88.5441 110.512 89.0972 110.694 89.3184C112.728 91.3832 113.964 94.1855 113.964 97.2827C113.964 100.306 112.765 103.108 110.694 105.21C110.04 105.874 109.277 106.501 108.405 106.98C109.859 107.09 111.203 107.717 112.256 108.75C113.346 109.856 114 111.294 114 112.99C114 114.575 113.382 116.05 112.256 117.23C111.166 118.336 109.75 119 108.078 119L54.239 118.963C49.7342 118.963 45.6654 117.083 42.7954 114.096C39.8164 111.073 38 106.943 38 102.482C38 97.9095 39.8528 93.7799 42.7954 90.867C43.5946 90.019 44.5029 89.2816 45.4474 88.6547C48.0631 87.0324 51.1511 86 54.2753 86Z" fill="#010066"/>
</svg>

<svg width="152" height="152" fill="none" xmlns="http://www.w3.org/2000/svg"><path d="M102.956 23.537H54.384c-4.069 0-7.774 1.574-10.426 4.255a14.253 14.253 0 0 0-4.323 10.262c0 4.004 1.598 7.58 4.323 10.261 2.652 2.646 6.358 4.255 10.426 4.255h53.731c1.235 0 2.325-.5 3.088-1.252a4.235 4.235 0 0 0 1.271-3.039c0-1.18-.472-2.252-1.271-3.039a4.374 4.374 0 0 0-3.088-1.251H54.384c-1.598 0-3.088-.608-4.178-1.716-1.09-1.109-1.743-2.467-1.743-4.112 0-1.538.617-2.968 1.743-4.112 1.09-1.072 2.507-1.716 4.178-1.716h48.536c.472 0 .726.358.726.715 0 .465-.363.715-.726.715H54.384c-1.235 0-2.325.465-3.088 1.252a4.332 4.332 0 0 0-1.271 3.039c0 1.215.508 2.288 1.271 3.039.8.786 1.89 1.251 3.088 1.251h48.536c2.652 0 5.013-1.072 6.757-2.753 1.744-1.716 2.797-4.04 2.797-6.65 0-2.467-.981-4.899-2.797-6.65-1.708-1.717-4.178-2.754-6.721-2.754ZM54.276 22h48.571c1.816 0 3.488.465 5.013 1.18.509.286 1.09.608 1.563.93.508.357 1.089.893 1.271 1.108 2.034 2.002 3.27 4.72 3.27 7.723 0 2.932-1.199 5.649-3.27 7.687-.654.644-1.417 1.251-2.289 1.716a6.232 6.232 0 0 1 3.851 1.716c1.09 1.073 1.744 2.467 1.744 4.112 0 1.538-.618 2.968-1.744 4.112-1.09 1.072-2.506 1.716-4.178 1.716l-53.839-.036c-4.505 0-8.574-1.823-11.444-4.72C39.816 46.314 38 42.309 38 37.983c0-4.433 1.853-8.438 4.795-11.262.8-.823 1.708-1.538 2.652-2.146C48.063 23.001 51.151 22 54.275 22ZM102.956 55.537H54.384c-4.069 0-7.774 1.574-10.426 4.255a14.253 14.253 0 0 0-4.323 10.262c0 4.004 1.598 7.58 4.323 10.261 2.652 2.646 6.358 4.255 10.426 4.255h53.731c1.235 0 2.325-.5 3.088-1.252a4.235 4.235 0 0 0 1.271-3.039c0-1.18-.472-2.252-1.271-3.039a4.374 4.374 0 0 0-3.088-1.251H54.384c-1.598 0-3.088-.608-4.178-1.716-1.09-1.109-1.743-2.467-1.743-4.112 0-1.537.617-2.968 1.743-4.112 1.09-1.073 2.507-1.716 4.178-1.716h48.536c.472 0 .726.358.726.715 0 .465-.363.715-.726.715H54.384c-1.235 0-2.325.465-3.088 1.251a4.332 4.332 0 0 0-1.271 3.04c0 1.215.508 2.288 1.271 3.039.8.786 1.89 1.251 3.088 1.251h48.536c2.652 0 5.013-1.072 6.757-2.753 1.744-1.716 2.797-4.04 2.797-6.65 0-2.467-.981-4.899-2.797-6.65-1.708-1.717-4.178-2.754-6.721-2.754ZM54.276 54h48.571c1.816 0 3.488.465 5.013 1.18.509.286 1.09.608 1.563.93.508.357 1.089.893 1.271 1.108 2.034 2.002 3.27 4.72 3.27 7.723 0 2.932-1.199 5.649-3.27 7.687-.654.644-1.417 1.251-2.289 1.716a6.232 6.232 0 0 1 3.851 1.716c1.09 1.073 1.744 2.467 1.744 4.112 0 1.538-.618 2.968-1.744 4.112-1.09 1.072-2.506 1.716-4.178 1.716l-53.839-.036c-4.505 0-8.574-1.823-11.444-4.72C39.816 78.314 38 74.309 38 69.983c0-4.433 1.853-8.438 4.795-11.262.8-.823 1.708-1.538 2.652-2.146C48.063 55.001 51.151 54 54.275 54ZM102.956 87.585H54.384c-4.069 0-7.774 1.623-10.426 4.388-2.688 2.692-4.323 6.453-4.323 10.582 0 4.13 1.598 7.817 4.323 10.582a14.488 14.488 0 0 0 10.426 4.388h53.731a4.33 4.33 0 0 0 3.088-1.29 4.44 4.44 0 0 0 1.271-3.134 4.44 4.44 0 0 0-1.271-3.135 4.307 4.307 0 0 0-3.088-1.29H54.384a5.72 5.72 0 0 1-4.178-1.77c-1.09-1.143-1.743-2.544-1.743-4.24 0-1.586.617-3.06 1.743-4.24 1.09-1.106 2.507-1.77 4.178-1.77h48.536c.472 0 .726.369.726.737a.71.71 0 0 1-.726.738H54.384c-1.235 0-2.325.48-3.088 1.29-.835.848-1.271 2.028-1.271 3.134 0 1.254.508 2.36 1.271 3.134.8.812 1.89 1.291 3.088 1.291h48.536c2.652 0 5.013-1.106 6.757-2.839a9.68 9.68 0 0 0 2.797-6.858c0-2.544-.981-5.052-2.797-6.858-1.708-1.77-4.178-2.84-6.721-2.84ZM54.276 86h48.571c1.816 0 3.488.48 5.013 1.217.509.295 1.09.627 1.563.958.508.37 1.089.922 1.271 1.143a11.29 11.29 0 0 1 3.27 7.965c0 3.023-1.199 5.825-3.27 7.927-.654.664-1.417 1.291-2.289 1.77 1.454.11 2.798.737 3.851 1.77 1.09 1.106 1.744 2.544 1.744 4.24 0 1.585-.618 3.06-1.744 4.24-1.09 1.106-2.506 1.77-4.178 1.77l-53.839-.037c-4.505 0-8.574-1.88-11.444-4.867-2.979-3.023-4.795-7.153-4.795-11.614 0-4.573 1.853-8.702 4.795-11.615.8-.848 1.708-1.585 2.652-2.212C48.063 87.032 51.151 86 54.275 86Z" fill="#010066"/></svg>
